!!!COM: the-shins
!!!OTL: caring-is-creepy
!!!RNB: hooktheoryid: veWxLAd_oaK
**kern	**text
*clefG2	*
*k[f#c#]	*
*M4/4	*
=1	=1
2d	.
4e	.
4f#	.
=2	=2
2r	Bm
4d	.
4a	.
=3	=3
4r	A
2f#	.
[4a	.
=4	=4
4a]	G
2b	.
[4d	.
=5	=5
4d]	Em
4B	.
8d	.
4e	.
[8f#	.
=6	=6
4.f#]	D
8r	Dsus4
[8dL	.
8d]J	D
[4a	.
=7	=7
4a]	A
[8f#L	.
[4f#]JL	Asus4
8f#]J]J	A
[4B	.
=8	=8
4B]	G
2.r	.
*-	*-